X: 585
T: I'm Lonely Tonight Love.
T: taim go uai.gnea.c ano.ct a .gra.n.
N:"Moderate."
B:O'Neill's 585
Z:Transcribed by John B. Walsh (walsh@math.ubc.ca)
M:3/4
L:1/16
%Q:60
K:G
EF GAB^c|d2f2 edBA B3c|BAGE E2EF GAB^c|d3e dBAB G2G2|G6 EF GAB^c|
d3f gefd e3d|B2A2 G2EF GAB^c|d3e dBAB G2G2|G6||
GA Bdef|g4 f2fg agfg|e3d B2BA Bdef|g3f agfg e2e2|e6 ef gfed|
e3f g2fe dBAc|B3G E2EF GAB^c|d3e dBAB G2G3|G6||


